img/logo-symbol.svg

<svg height="48" viewBox="0 0 48 48" width="48" xmlns="http://www.w3.org/2000/svg"><g fill="none" fill-rule="evenodd"><rect fill="#282726" height="48" rx="3.75" width="48"/><path d="m27.172 10.75h5.928v7.714h-.494c-.7600038-1.925343-1.8176599-3.4326612-3.173-4.522s-2.8943247-1.634-4.617-1.634c-2.0266768 0-3.5909945.8043253-4.693 2.413s-1.653 3.8189859-1.653 6.631c0 3.4960175.702993 6.276323 2.109 8.341s3.3376544 3.097 5.795 3.097c1.7733422 0 3.3313266-.3673297 4.674-1.102s2.482662-1.8366593 3.42-3.306l.57.38c-1.1146722 2.6600133-2.6283238 4.7373259-4.541 6.232s-4.0596548 2.242-6.441 2.242c-3.3693502 0-6.0609899-1.1463219-8.075-3.439s-3.021-5.338981-3.021-9.139c0-1.8493426.3609964-3.6479913 1.083-5.396s1.7416601-3.2806601 3.059-4.598c1.2920065-1.266673 2.7929915-2.2356633 4.503-2.907 1.7100086-.6713367 3.5656567-1.007 5.567-1.007z" fill="#f9f9fa" fill-rule="nonzero"/></g></svg>

<?xml version="1.0" encoding="UTF-8"?>
<svg width="48px" height="48px" viewBox="0 0 48 48" version="1.1" xmlns="http://www.w3.org/2000/svg" xmlns:xlink="http://www.w3.org/1999/xlink">
    <!-- Generator: Sketch 55 (78076) - https://sketchapp.com -->
    <title>logo-symbol</title>
    <desc>Created with Sketch.</desc>
    <g id="Page-1" stroke="none" stroke-width="1" fill="none" fill-rule="evenodd">
        <g id="logo-symbol">
            <rect id="Rectangle" fill="#2E2D2C" x="0" y="0" width="48" height="48" rx="3.75"></rect>
            <path d="M27.172,10.75 L33.1,10.75 L33.1,18.464 L32.606,18.464 C31.8459962,16.538657 30.7883401,15.0313388 29.433,13.942 C28.0776599,12.8526612 26.5386753,12.308 24.816,12.308 C22.7893232,12.308 21.2250055,13.1123253 20.123,14.721 C19.0209945,16.3296747 18.47,18.5399859 18.47,21.352 C18.47,24.8480175 19.172993,27.628323 20.579,29.693 C21.985007,31.757677 23.9166544,32.79 26.374,32.79 C28.1473422,32.79 29.7053266,32.4226703 31.048,31.688 C32.3906734,30.9533297 33.530662,29.8513407 34.468,28.382 L35.038,28.762 C33.9233278,31.4220133 32.4096762,33.4993259 30.497,34.994 C28.5843238,36.4886741 26.4373452,37.236 24.056,37.236 C20.6866498,37.236 17.9950101,36.0896781 15.981,33.797 C13.9669899,31.5043219 12.96,28.458019 12.96,24.658 C12.96,22.8086574 13.3209964,21.0100087 14.043,19.262 C14.7650036,17.5139913 15.7846601,15.9813399 17.102,14.664 C18.3940065,13.397327 19.8949915,12.4283367 21.605,11.757 C23.3150086,11.0856633 25.1706567,10.75 27.172,10.75 Z" id="C" fill="#F9F9FA" fill-rule="nonzero"></path>
        </g>
    </g>
</svg>
